**harm	**harte	**timestamp	**phrase	**leadinstrument	**kern
*M12/8	*M12/8	*	*	*	*
*E:	*E:	*	*	*	*E:
1r;	N	0	.	r	1r;
=1	=1	=1	=1	=1	=1
*>A_intro	*>A_intro	*>A_intro	*>A_intro	*>A_intro	*>A_intro
1.I	E:maj	0.372	newline	trumpet	1E 1g# 1b
=2	=2	=2	=2	=2	=2
1.vi	C#:min	3.598	.	trumpet	1C# 1e 1g#
=3	=3	=3	=3	=3	=3
1.IV	A:maj	6.825	.	trumpet	1A 1cc# 1ee
=4	=4	=4	=4	=4	=4
1.V	B:maj	10.052	.	trumpet	1B 1dd# 1ff#
=5	=5	=5	=5	=5	=5
*>B_verse	*>B_verse	*>B_verse	*>B_verse	*>B_verse	*>B_verse
2.I	E:maj	13.278	newline	voice	2E 2g# 2b
2.vi	C#:min	14.876	.	voice	2C# 2e 2g#
=6	=6	=6	=6	=6	=6
1.ii	F#:min	16.474	.	voice	1F# 1a 1cc#
=7	=7	=7	=7	=7	=7
1.V7	B:7	19.67	.	voice	1B 1dd# 1ff# 1aa
=8	=8	=8	=8	=8	=8
2.IVc	A:maj/5	22.866	.	voice	2a 2cc# 2E
2.I	E:maj	24.464	.	voice	2E 2g# 2b
=9	=9	=9	=9	=9	=9
2.I	E:maj	26.062	newline	voice	2E 2g# 2b
2.vi	C#:min	27.668	.	voice	2C# 2e 2g#
=10	=10	=10	=10	=10	=10
1.IV7	A:maj7	29.274	.	voice	1A 1cc# 1ee 1gg#
=11	=11	=11	=11	=11	=11
2.ii7	F#:min7	32.486	.	voice	2F# 2a 2cc# 2ee
2.V	B:maj	34.092	.	voice	2B 2dd# 2ff#
=12	=12	=12	=12	=12	=12
2.#ivo	A#:dim	35.698	.	voice	2A# 2cc# 2ee
2.V	B:maj	37.304	.	voice	2B 2dd# 2ff#
=13	=13	=13	=13	=13	=13
2.I	E:maj	38.91	newline	voice	2E 2g# 2b
2.vi	C#:min	40.525	.	voice	2C# 2e 2g#
=14	=14	=14	=14	=14	=14
1.ii	F#:min	42.14	.	voice	1F# 1a 1cc#
=15	=15	=15	=15	=15	=15
1.V7	B:7	45.369	.	voice	1B 1dd# 1ff# 1aa
=16	=16	=16	=16	=16	=16
2.IVc	A:maj/5	48.599	.	voice	2a 2cc# 2E
2.I	E:maj	50.214	.	voice	2E 2g# 2b
=17	=17	=17	=17	=17	=17
2.I	E:maj	51.829	newline	voice	2E 2g# 2b
2.vi	C#:min	53.443	.	voice	2C# 2e 2g#
=18	=18	=18	=18	=18	=18
1.IV7	A:maj7	55.057	.	voice	1A 1cc# 1ee 1gg#
=19	=19	=19	=19	=19	=19
1.V	B:maj	58.286	.	voice	1B 1dd# 1ff#
=20	=20	=20	=20	=20	=20
1.I	E:maj	61.514	.	voice	1E 1g# 1b
=21	=21	=21	=21	=21	=21
*>C_bridge	*>C_bridge	*>C_bridge	*>C_bridge	*>C_bridge	*>C_bridge
1.-VI	C:maj	64.743	newline	voice	1C 1e 1g
=22	=22	=22	=22	=22	=22
1.-IIIb	G:maj/3	67.981	.	voice	1g 1B 1dd
=23	=23	=23	=23	=23	=23
1.iv	A:min	71.22	.	voice	1A 1cc 1ee
=24	=24	=24	=24	=24	=24
1.ib	E:min/b3	74.459	.	voice	1e 1G 1b
=25	=25	=25	=25	=25	=25
2.-II	F:maj	77.697	newline	voice	2F 2a 2cc
4.ii	F#:min	79.33	.	voice	4F# 4a 4cc#
4.V	B:maj	80.146	.	voice	4B 4dd# 4ff#
=26	=26	=26	=26	=26	=26
4.I	E:maj	80.962	.	voice	4E 4g# 4b
4.Id	E:maj/7	81.779	.	voice	4e 4g# 4b
4.vi	C#:min	82.595	.	voice	4C# 4e 4g#
4.vid	C#:min/b7	83.411	.	voice	4c# 4e 4g#
=27	=27	=27	=27	=27	=27
1.IV7	A:maj7	84.227	.	voice	1A 1cc# 1ee 1gg#
=28	=28	=28	=28	=28	=28
2.IVe	A:maj/2	87.492	.	voice	2A 2cc# 2ee
4.ii	F#:min	89.125	.	voice	4F# 4a 4cc#
4.V	B:maj	89.941	.	voice	4B 4dd# 4ff#
=29	=29	=29	=29	=29	=29
*>B_verse	*>B_verse	*>B_verse	*>B_verse	*>B_verse	*>B_verse
2.I	E:maj	90.757	newline	voice	2E 2g# 2b
2.vi	C#:min	92.379	.	voice	2C# 2e 2g#
=30	=30	=30	=30	=30	=30
1.ii	F#:min	94	.	voice	1F# 1a 1cc#
=31	=31	=31	=31	=31	=31
1.V7	B:7	97.242	.	voice	1B 1dd# 1ff# 1aa
=32	=32	=32	=32	=32	=32
2.IVc	A:maj/5	100.485	.	voice	2a 2cc# 2E
2.I	E:maj	102.106	.	voice	2E 2g# 2b
=33	=33	=33	=33	=33	=33
2.I	E:maj	103.727	newline	voice	2E 2g# 2b
2.vi	C#:min	105.37	.	voice	2C# 2e 2g#
=34	=34	=34	=34	=34	=34
1.IV7	A:maj7	107.012	.	voice	1A 1cc# 1ee 1gg#
=35	=35	=35	=35	=35	=35
1.V	B:maj	110.297	.	voice	1B 1dd# 1ff#
=36	=36	=36	=36	=36	=36
2.I	E:maj	113.582	newline	trumpet	2E 2g# 2b
2.vi	C#:min	115.189	.	trumpet	2C# 2e 2g#
=37	=37	=37	=37	=37	=37
1.ii	F#:min	116.795	.	trumpet	1F# 1a 1cc#
=38	=38	=38	=38	=38	=38
1.V7	B:7	120.008	.	trumpet	1B 1dd# 1ff# 1aa
=39	=39	=39	=39	=39	=39
2.IVc	A:maj/5	123.222	.	trumpet	2a 2cc# 2E
2.I	E:maj	124.828	.	trumpet	2E 2g# 2b
=40	=40	=40	=40	=40	=40
2.I	E:maj	126.435	newline	voice	2E 2g# 2b
2.vi	C#:min	128.499	.	voice	2C# 2e 2g#
=41	=41	=41	=41	=41	=41
1.IV7	A:maj7	130.562	.	voice	1A 1cc# 1ee 1gg#
=42	=42	=42	=42	=42	=42
1.V	B:maj	134.69	.	voice	1B 1dd# 1ff#
=43	=43	=43	=43	=43	=43
*>A2_coda	*>A2_coda	*>A2_coda	*>A2_coda	*>A2_coda	*>A2_coda
1.I	E:maj	138.817	newline	trumpet	1E 1g# 1b
=44	=44	=44	=44	=44	=44
2.vi	C#:min	142.602	.	trumpet	2C# 2e 2g#
2.IV	A:maj	144.495	.	trumpet	2A 2cc# 2ee
=45	=45	=45	=45	=45	=45
1.I	E:maj	146.388	.	trumpet	1E 1g# 1b
1r;	N	150.489	.	r	1r;
1r;	N	155.298	.	r	1r;
*-	*-	*-	*-	*-	*-
!!!OTL: Losing You
!!!COC: Brenda Lee
!!!BillboardChartDate: 1963/06/29
!!!BillboardPeak: 6
!!!BillboardWeeksOnChart: 13
!!!SampleTargetRank: 40
!!!SampleActualRank: 41
!!!SampleID#: 0371
!!!RDF**harmony: **recip + pitch class of root + harmonic quality
!!!RDF**harte: Chris Harte's syntax, used by MIREX
!!!RDF**phrase: newline = linebreak in original McGill transcription
!!!RDF**timestamp: McGill audio timestamp in seconds
!!!RDF**leadinstrument: original McGill primary instrumentation annotation
!!!RDT: 2017/01/12/
!!!ENC: Nathaniel Condit-Schultz
!!!EST: Awating manual error checking and editing.
